!!!OTL: ES WOLLTE EIN KUECHENJUNG
!!!ARE: Europa, Mitteleuropa, Deutschland, Magdeburg, Genthin
!!!SCT: E0186E
!!!YEM: Copyright 1995, estate of Helmut Schaffrath.
**kern
*ICvox
*Ivox
*M3/8
*k[]
*C:
{8G
=1
8c
8c
8G
=2
8c
8d
8e
=3
8d
8B
8d
=4
8B
8G}
{8c
=5
8A
8B
8c
=6
8G
8G
8E
=7
8A
8B
8c
=8
4G}
{8G
=9
8c
8c
8G
=10
8c
8d
8e
=11
8G
8A
8G
=12
4c}
==
!!!AGN: erzaehlendes Volks - Lied, Sage, Familien - Geschichte, Mord
!!!ONB: ESAC (Essen Associative Code) Database: ERK1
!!!AMT: simple triple
!!!AIN: vox
!!!EED: Helmut Schaffrath
!!!EEV: 1.0
*-
